svgs/materials/action/swipe_vertical.svg

<svg xmlns="http://www.w3.org/2000/svg" enable-background="new 0 0 24 24" height="24" viewBox="0 0 24 24" width="24"><g><rect fill="none" height="24" width="24"/></g><g><path d="M1,3.5h2.02C1.13,5.82,0,8.78,0,12s1.13,6.18,3.02,8.5H1V22h5v-5H4.5v2.91c-1.86-2.11-3-4.88-3-7.91s1.14-5.79,3-7.91V7H6 V2H1V3.5z M13.85,11.62l-2.68-5.37c-0.37-0.74-1.27-1.04-2.01-0.67C8.41,5.96,8.11,6.86,8.48,7.6l4.81,9.6L10.05,18 c-0.33,0.09-0.59,0.33-0.7,0.66L9,19.78l6.19,2.25c0.5,0.17,1.28,0.02,1.75-0.22l5.51-2.75c0.89-0.45,1.32-1.48,1-2.42l-1.43-4.27 c-0.27-0.82-1.04-1.37-1.9-1.37h-4.56c-0.31,0-0.62,0.07-0.89,0.21L13.85,11.62"/></g></svg>

<?xml version="1.0" encoding="UTF-8" standalone="no"?>
<svg
   enable-background="new 0 0 24 24"
   height="24"
   viewBox="0 0 24 24"
   width="24"
   version="1.1"
   id="svg10"
   sodipodi:docname="swipe_vertical.svg"
   inkscape:version="1.2 (dc2aeda, 2022-05-15)"
   xmlns:inkscape="http://www.inkscape.org/namespaces/inkscape"
   xmlns:sodipodi="http://sodipodi.sourceforge.net/DTD/sodipodi-0.dtd"
   xmlns="http://www.w3.org/2000/svg"
   xmlns:svg="http://www.w3.org/2000/svg">
  <defs
     id="defs14" />
  <sodipodi:namedview
     id="namedview12"
     pagecolor="#ffffff"
     bordercolor="#000000"
     borderopacity="0.25"
     inkscape:showpageshadow="2"
     inkscape:pageopacity="0.0"
     inkscape:pagecheckerboard="0"
     inkscape:deskcolor="#d1d1d1"
     showgrid="false"
     inkscape:zoom="9.8333333"
     inkscape:cx="8.2372881"
     inkscape:cy="12"
     inkscape:window-width="1309"
     inkscape:window-height="456"
     inkscape:window-x="0"
     inkscape:window-y="25"
     inkscape:window-maximized="0"
     inkscape:current-layer="svg10" />
  <path
     id="rect2"
     style="fill:none"
     d="M 0,0 H 24 V 24 H 0 Z" />
  <path
     d="M 1,3.5 H 3.02 C 1.13,5.82 0,8.78 0,12 c 0,3.22 1.13,6.18 3.02,8.5 H 1 V 22 H 6 V 17 H 4.5 v 2.91 C 2.64,17.8 1.5,15.03 1.5,12 1.5,8.97 2.64,6.21 4.5,4.09 V 7 H 6 V 2 H 1 Z M 13.85,11.62 11.17,6.25 C 10.8,5.51 9.9,5.21 9.16,5.58 8.41,5.96 8.11,6.86 8.48,7.6 l 4.81,9.6 -3.24,0.8 c -0.33,0.09 -0.59,0.33 -0.7,0.66 L 9,19.78 l 6.19,2.25 c 0.5,0.17 1.28,0.02 1.75,-0.22 l 5.51,-2.75 c 0.89,-0.45 1.32,-1.48 1,-2.42 L 22.02,12.37 C 21.75,11.55 20.98,11 20.12,11 h -4.56 c -0.31,0 -0.62,0.07 -0.89,0.21 l -0.82,0.41"
     id="path6" />
</svg>
